!!!!SEGMENT: pl-sa--551-a-ix-31--005_kurpinski-karol-kazimierz--litwinka.krn
!!!cenid: 18xx:504
!!!COM: Kurpiński, Karol Kazimierz
!!!COM-rism: pe30018952
!!!CDT: 1785/03/06-1857/09/18
!!!CNT: Polish
!!!OTL: Litwinka
!!!PDT:
!!!AGN: Secular
!!!SMS-siglum: PL-SA
!!!SMS-shelfmark: 551/A IX 31
!!!NIFC-rismID: 1001069460
!!!URL-scan: http://bc.bdsandomierz.pl/dlibra/publication/1307/edition/1275/content
!!!ONB-nifc: Str. 6 (s. 2) – str. 8 (s. 4)
!!!SMS-variant:
!!!SMS-altvar:
**kern	**kern	**dynam
*part2	*part1	*part1
*staff2	*staff1	*
*I"Piano	*I"Piano	*
*I'pf	*I'pf	*
*clefF4	*clefG2	*
*k[b-]	*k[b-]	*
*F:	*F:	*
*M2/4	*M2/4	*
=1	=1	=1
*tremolo	*	*
!	!LO:TX:a:i:t=Alegretto.	!
!	!LO:TX:a:i:t=Litwinka	!
8c 8A\L	2r	.
8c 8A\	.	.
8c 8A\	.	.
8c 8A\J	.	.
*Xtremolo	*	*
=2	=2	=2
*rep	*	*
2c 2A\	4r	.
.	8r	.
.	8c/	.
*Xrep	*	*
=3	=3	=3
*rep	*	*
2c 2A\	8f/L	.
.	8a/	.
.	8cc/	.
.	8ff/J	.
*Xrep	*	*
=4	=4	=4
*rep	*	*
!	!LO:N:vis=4	!
2c 2A\	4.cc\	.
.	8c/	.
*Xrep	*	*
=5	=5	=5
*rep	*	*
2c 2A\	8f/L	.
.	8a/	.
.	8cc/	.
.	8ff/J	.
*Xrep	*	*
=6	=6	=6
!	!LO:N:vis=4	!
4e-X 4E-X\	4.aa 4.ff 4.dd\	.
8dL 8D\	.	.
*	*Xtuplet	*
8cJ 8C\	24ffLL 24dd\	.
.	24gg 24ee\	.
.	24aaJJ 24ff\	.
=7	=7	=7
8.B-L 8.BB-\	8.bb-L 8.gg\	.
16B-K 16F\	16bb-K 16dd\	.
8.c 8.A\	8.aa 8.cc\	.
16dJk 16B-\	16ggJk 16b-\	.
!!LO:LB:g=original
=8	=8	=8
8.dL 8.Bn\	8.ffL 8.a-X\	.
16dK 16B\	16ffK 16a-\	.
8.e 8.B\	8.ee 8.g\	.
16fJk 16B\	16ddJk 16a-\	.
=9	=9	=9
8f 8c\	8.ccL 8.an\	.
8r	.	.
.	16cc#X\Jk	.
*	*^	*
4B- 4G 4C\	8.dd/L	4e\	.
.	16ccn/Jk	.	.
*	*v	*v	*
=10	=10	=10
8AL 8F\	8f/L	p
8c 8A 8F\	8a 8f/	.
8c 8A 8F\	8a 8f/	.
8cJ 8A 8F\	8aJ 8f/	.
=11	=11	=11
*tremolo	*	*
8c 8B- 8F\L	8.gL 8.e/	.
8c 8B- 8F\	.	.
.	16gK 16e/	.
8c 8B- 8F\	8.b- 8.g/	.
8c 8B- 8F\J	.	.
.	16gJk 16e/	.
=12	=12	=12
8c 8A 8F\L	8f/L	.
8c 8A 8F\	8a 8f/	.
8c 8A 8F\	8a 8f/	.
8c 8A 8F\J	8aJ 8f/	.
=13	=13	=13
8c 8B- 8F\L	8.gL 8.e/	.
8c 8B- 8F\	.	.
.	16gK 16e/	.
8c 8B- 8F\	8.b- 8.g/	.
8c 8B- 8F\J	.	.
.	16gJk 16e/	.
*Xtremolo	*	*
=14	=14	=14
!LO:N:vis=8	!	!
4c 4A 4F\	8f/L	.
.	16a/L	.
.	16cc/JJ	.
8f\L	8ff\L	.
16c\L	16cc\L	.
16c\JJ	16cc\JJ	.
=15	=15	=15
8f\L	8ff\L	.
16A\L	16a\L	.
16c\JJ	16cc\JJ	.
8f\L	8ff\L	.
16c\L	16cc\L	.
16A\JJ	16a\JJ	.
!!LO:LB:g=original
=16	=16	=16
8F\	8f/	.
8r	8r	.
4F 4C 4AA 4FF/	4ff 4cc 4a 4f\	.
=17	=17	=17
2r	2r	.
=18||	=18||	=18||
8A 8F\	4f/	.
8r	.	.
8A 8F\	8.c/L	.
8r	.	.
.	16f/Jk	.
=19	=19	=19
8c 8A 8F\	4.a/	.
8r	.	.
8c 8A 8F\	.	.
8r	8g/	.
=20	=20	=20
*rep	*	*
8c 8A 8F\	8.f/L	.
8r	.	.
.	16g/K	.
8c 8A 8F\	8.a/	.
8r	.	.
.	16b-/Jk	.
*Xrep	*	*
=21	=21	=21
8c 8G 8E\	4dd\	.
8r	.	.
8c 8G 8E\	8cc\	.
8r	8r	.
=22	=22	=22
*rep	*	*
8c 8G 8E\	4cc\	.
8r	.	.
8c 8G 8E\	8.dd\L	.
8r	.	.
.	16cc\Jk	.
*Xrep	*	*
=23	=23	=23
8A 8F 8D\	4a/	.
8r	.	.
8A 8F 8D\	8.f/L	.
8r	.	.
.	16g/Jk	.
=24	=24	=24
8A 8F 8C\	2a/	.
8r	.	.
8A 8F 8C\	.	.
8r	.	.
=25	=25	=25
8.GL 8.E 8.C\	8.g/L	.
16G\K	16g/K	.
8.G\	8.g/	.
16G\Jk	16g/Jk	.
=26	=26	=26
*tremolo	*	*
(8F 8D 8BB-\L	4.g/	.
8G\	.	.
8F 8D 8BB-\	.	.
8G\)J	8g/	.
!!LO:PB:g=original
=27	=27	=27
8E 8C\L	4a/	.
8G\	.	.
8E 8C\	8g/L	.
8G\J	8g/J	.
=28	=28	=28
8F 8D 8BB-\L	4.g/	.
8G\	.	.
8F 8D 8BB-\	.	.
8G\J	8ff\	.
*Xtremolo	*	*
=29	=29	=29
8GG#X\L	4ff\	.
8FJ 8D 8BBn\	.	.
8AA\L	4ee\	.
8EJ 8C\	.	.
=30	=30	=30
8E\L	4ee\	.
8cJ 8G\	.	.
*rep	*	*
8E\L	8.dd\L	.
8cJ 8G\	.	.
.	16cc\Jk	.
*Xrep	*	*
=31	=31	=31
.	8qcc/	.
8F\L	12bn\L	.
.	12a\	.
8cJ 8A\	.	.
.	12b\J	.
*rep	*	*
8F\L	12dd\L	.
.	12cc\	.
8cJ 8A\	.	.
.	12a\J	.
*Xrep	*	*
=32	=32	=32
8G 8GG\	4g 4e/	.
8r	.	.
8G 8GG\	8.aL 8.f/	.
8r	.	.
.	16bnJk 16d/	.
=33	=33	=33
4Bn 4G 4C\	4dd 4f\	.
8c 8G 8C\	8cc 8e\	.
8r	8ryy	.
=34	=34	=34
2r	8.ccL 8.c/	.
.	16ccK 16c/	.
.	8.cc 8.c/	.
.	16ccJk 16c/	.
=35	=35	=35
*	*rep	*
2r	8.ccL 8.c/	.
.	16ccK 16c/	.
.	8.cc 8.c/	.
.	16ccJk 16c/	.
*	*Xrep	*
!!LO:LB:g=original
=36	=36	=36
*tremolo	*	*
8E 8C\L	4g/	.
8G\	.	.
8E 8C\	8.g/L	.
8G\J	.	.
.	16b-/Jk	.
=37	=37	=37
8F 8AA\L	4.a/	.
8A\	.	.
8F 8AA\	.	.
8A\J	8a/	.
=38	=38	=38
.	8qcc/	.
8G 8E\L	8.b-\L	.
8c\	.	.
.	16a\K	.
8G 8E\	8.b-\	.
8c\J	.	.
.	16dd\Jk	.
=39	=39	=39
8A 8F\L	4dd\	.
8c\	.	.
8A 8F\	8cc\	.
8c\J	8r	.
=40	=40	=40
8G 8E\L	4cc\	.
8c\	.	.
8G 8E\	8.dd\L	.
8c\J	.	.
.	16ee\Jk	.
*Xtremolo	*	*
=41	=41	=41
8FL 8D\	4ff\	.
8G\	.	.
8F 8D\	8.dd\L	.
8Bn\J	.	.
.	16bn\Jk	.
=42	=42	=42
*tremolo	*	*
8A 8E\L	2ff\	.
8c\	.	.
8A 8E\	.	.
8c\J	.	.
*Xtremolo	*	*
=43	=43	=43
8G#XL 8E\	4e/	.
8Bn\J	.	.
16F\LL	8b-XL 8g/	.
16E\	.	.
16D\	8c/J	.
16E\JJ	.	.
=44	=44	=44
8.AL 8.F\	4f/	.
16cK 16A 16F\	.	.
8.c 8.A 8.F\	8.f/L	.
16cJk 16A 16F\	16g/Jk	.
!!LO:LB:g=original
=45	=45	=45
8.cL 8.A 8.F\	4a/	.
16cK 16A 16F\	.	.
8.c 8.A 8.F\	8.b-/L	.
16cJk 16A 16F\	16cc/Jk	.
=46	=46	=46
8.B-L 8.F 8.D 8.BB-\	4dd\	.
16B-K 16F 16D 16BB-\	.	.
8.B- 8.F 8.D 8.BB-\	4b-\	.
16B-Jk 16F 16D 16BB-\	.	.
=47	=47	=47
*rep	*	*
8.B-L 8.F 8.D 8.BB-\	8.r	.
16B-K 16F 16D 16BB-\	16b-\KL	.
8.B- 8.F 8.D 8.BB-\	8.cc\	.
16B-Jk 16F 16D 16BB-\	16dd\Jk	.
*Xrep	*	*
=48	=48	=48
!LO:N:vis=8	!	!
8.r	4dd 4b-\	.
16c 16C\	.	.
4c 4C\	8.ccL 8.a\	.
.	16aJk 16f\	.
=49	=49	=49
8.r	4cc 4a\	.
16cKL 16C\	.	.
8.c 8.C\	8.b-L 8.g\	.
16c#XJk 16C#X\	16gJk 16e\	.
=50	=50	=50
4c#X 4D\	4b- 4g 4e\	.
8.dL 8.D\	8a 8f\	.
.	8r	.
16A-XJk 16F 16D 16BBn\	.	.
=51	=51	=51
!LO:TX:b:t=3	!	!
2A-X 2F 2D 2BBn\	8.r	.
.	16dd\KL	.
.	8.ee\	.
.	16ff\Jk	.
=52	=52	=52
4An 4E 4C\	4ff\	.
4r	8.cc\L	.
.	(>16cc\Jk	.
!!LO:LB:g=original
=53	=53	=53
!	!LO:TX:a:t=P:problem:w źródle brak zakończenia tego łuku	!
4.B- 4.G 4.E 4.C\	8.ee\L)	.
.	16dd\Jk	.
.	16cc\LL	.
.	16b-\	.
8r	16a\	.
.	16g\JJ	.
=54||	=54||	=54||
8FL 8FF\	8f 8A/	.
16C\L	8r	.
16C\JJ	.	.
8F\L	4r	.
16C\L	.	.
16C\JJ	.	.
=55	=55	=55
8F\L	4r	<
16C\L	.	.
16C\JJ	.	.
8F\L	8r	.
16C\L	16c/LL	[
16C\JJ	16c/JJ	.
=56	=56	=56
*rep	*	*
8F\L	8f/L	.
16C\L	16c/L	.
16C\JJ	16c/JJ	.
*Xrep	*	*
*rep	*	*
8F\L	8f'</L	.
16C\L	16c/L	.
16C\JJ	16c/JJ	.
*Xrep	*	*
=57	=57	=57
*rep	*rep	*
8F\L	8f/L	.
16C\L	16c/L	.
16C\JJ	16c/JJ	.
8F\L	8f/L	.
16C\L	16c/L	.
16C\JJ	16c/JJ	.
*Xrep	*Xrep	*
=58	=58	=58
8F\L	8f/L	.
8c 8A 8F\	8a 8f/	.
8c 8A 8F\	8a 8f/	.
8cJ 8A 8F\	8aJ 8f/	.
=59	=59	=59
*tremolo	*	*
8c 8G 8E 8C\L	8.gL 8.e/	.
8c 8G 8E 8C\	.	.
.	16gK 16e/	.
8c 8G 8E 8C\	8.b- 8.g/	.
8c 8G 8E 8C\J	.	.
.	16gJk 16e/	.
*Xtremolo	*	*
=60	=60	=60
*rep	*rep	*rep
!LO:TX:t=P:problem:dwutaktowa repetycja	!LO:TX:t=P:problem:dwutaktowa repetycja	!
8F\L	8f/L	.
8c 8A 8F\	8a 8f/	.
8c 8A 8F\	8a 8f/	.
8cJ 8A 8F\	8aJ 8f/	.
=61	=61	=61
!	!LO:TX:a:t=2	!
8c 8G 8E 8C\L	8.gL 8.e/	.
8c 8G 8E 8C\	.	.
.	16gK 16e/	.
8c 8G 8E 8C\	8.b- 8.g/	.
8c 8G 8E 8C\J	.	.
.	16gJk 16e/	.
*Xrep	*Xrep	*Xrep
!!LO:PB:g=original
=62	=62	=62
*rep	*rep	*rep
!LO:TX:t=P:problem:dwutaktowa repetycja	!LO:TX:t=P:problem:dwutaktowa repetycja	!
2ryy	8f/L	.
.	8a 8f/	.
.	8a 8f/	.
.	8aJ 8f/	.
=63	=63	=63
!	!LO:TX:a:t=3	!
2ryy	8.gL 8.e/	.
.	16gK 16e/	.
.	8.b- 8.g/	.
.	16gJk 16e/	.
*Xrep	*Xrep	*Xrep
=64	=64	=64
*rep	*rep	*rep
!LO:TX:t=P:problem:dwutaktowa repetycja	!LO:TX:t=P:problem:dwutaktowa repetycja	!
2ryy	8f/L	.
.	8a 8f/	.
.	8a 8f/	.
.	8aJ 8f/	.
=65	=65	=65
!	!LO:TX:a:t=4	!
2ryy	8.gL 8.e/	.
.	16gK 16e/	.
.	8.b- 8.g/	.
.	16gJk 16e/	.
*Xrep	*Xrep	*Xrep
=66	=66	=66
*tremolo	*	*
!LO:TX:a:t=P:problem:mixed beam	!	!
8FF/L	4cc 4a 4c/	ff
8F\	.	.
8FF/	8.ccL 8.a 8.c/	.
8F\J	.	.
.	16ccJk 16a 16c/	.
=67	=67	=67
!LO:TX:a:t=P:problem:mixed beam	!	!
8FF/L	4.cc 4.a 4.c/	.
8F\	.	.
8FF/	.	.
8F\J	8cc 8a 8f/	.
=68	=68	=68
.	8qcc 8qa/	.
!LO:TX:a:t=P:problem:mixed beam	!	!
8FF/L	8.b-L 8.g\	.
8F\	.	.
.	16aK 16f\	.
8FF/	8.b- 8.g\	.
8F\J	.	.
.	16ddJk 16b-\	.
=69	=69	=69
!LO:TX:a:t=P:problem:mixed beam	!	!
8FF/L	(>4dd 4b-\	.
8F\	.	.
8FF/	8cc 8a\)	.
8F\J	8r	.
=70	=70	=70
!LO:TX:a:t=P:problem:mixed beam	!	!
8FF/L	4cc 4a 4f\	.
8F\	.	.
8FF/	8.ccL 8.a 8.f\	.
8F\J	.	.
.	16ccJk 16a 16f\	.
*Xtremolo	*	*
=71	=71	=71
2D 2DD^>/	4.ff 4.a 4.f\	.
.	8a 8f\	.
=72	=72	=72
4BB- 4BBB-/	8.gL 8.d/	.
.	16b-K 16g/	.
4C 4CC/	8.a 8.f/	.
.	16gJk 16e/	.
!!LO:LB:g=original
=73	=73	=73
4C 4CC/	4g 4e 4B-/	.
8FF/	8f 8A/	.
16c\LL	16cc\LL	.
16c\JJ	16cc\JJ	.
=74	=74	=74
8f\L	8ff\L	.
16c\L	16cc\L	.
16c\JJ	16cc\JJ	.
*rep	*rep	*
8f\L	8ff\L	.
16c\L	16cc\L	.
16c\JJ	16cc\JJ	.
*Xrep	*Xrep	*
=75	=75	=75
*rep	*rep	*
8f\L	8ff\L	.
16c\L	16cc\L	.
16c\JJ	16cc\JJ	.
*Xrep	*Xrep	*
*rep	*rep	*
8f\L	8ff\L	.
16c\L	16cc\L	.
16c\JJ	16cc\JJ	.
*Xrep	*Xrep	*
=76	=76	=76
8f\L	8aaL 8ff 8cc\	.
8c\	8gg 8ee 8b-\	.
8d\	8ff 8a\	.
8c#X\J	8eeJ 8cc#X 8g\	.
=77	=77	=77
8d\L	8ddL 8b- 8f\	.
8A\	8cc 8g-X 8e-X\	.
8B-\	8b- 8f 8d\	.
8F#X\J	8aJ 8e-X 8c\	.
=78	=78	=78
8G\	8gL 8d 8B-/	.
8r	16a/L	.
!	!LO:TX:a:t=P:problem:w źródle pomiędzy 16b- a 16cc dodatkowa zbędna kreska taktowa	!
.	16b-/JJ	.
4r	16cc\LL	.
.	16dd\	.
.	16ee\	.
.	16ff#X\JJ	.
=79	=79	=79
2r	16gg\LL	.
.	16aa\	.
.	16bb-\	.
.	16ccc\JJ	.
.	16ccc#X\LL	.
.	16ddd\	.
.	16eee\	.
.	16fff#X\JJ	.
!!LO:LB:g=original
=80	=80	=80
8r	8ggg\	.
16r	16r	.
16B-KL 16G\	16ddKL 16b-\	.
8.e-X 8.A\	8.cc 8.f#X\	.
16dJk 16B-\	16b-Jk 16g\	.
=81	=81	=81
!	!LO:TX:a:t=P:problem:"3" przed 8a 8f	!
8c\	8a\L 8f\	.
8r	16r	.
.	16cc\Jk	.
*	*^	*
4B- 4G 4C\	8.dd/L	4e\	.
.	16cc/Jk	.	.
*	*v	*v	*
=82	=82	=82
8AL 8F\	8f/L	.
8c 8A 8F\	8a 8f/	.
8c 8A 8F\	8a 8f/	.
8cJ 8A 8F\	8aJ 8f/	.
=83	=83	=83
8cL 8B- 8F\	8gL 8e/	.
8cJ 8B- 8F\	8gJ 8e/	.
*	*^	*
4d 4B-X 4F\	8.b-/L	4d\	.
.	16e/Jk	.	.
*	*v	*v	*
=84	=84	=84
*tremolo	*	*
8c 8A 8F\L	8f/L	.
8c 8A 8F\	8a 8f/	.
8c 8A 8F\	8a 8f/	.
8c 8A 8F\J	8aJ 8f/	.
*Xtremolo	*	*
=85	=85	=85
8cL 8B- 8F\	8gL 8e/	.
8cJ 8B- 8F\	8gJ 8e/	.
*	*^	*
4d 4B-X 4F\	8.b-/L	4e\	.
.	16e/Jk	.	.
*	*v	*v	*
=86	=86	=86
8c 8A 8F\	8f/L	.
8r	16a/L	.
.	16cc/JJ	.
8f\L	8ff\L	.
16c\L	16cc\L	.
16c\JJ	16cc\JJ	.
=87	=87	=87
8f\L	8ff\L	.
16A\L	16a\L	.
16c\JJ	16cc\JJ	.
8f\L	8ff\L	.
16c\L	16cc\L	.
16A\JJ	16a\JJ	.
!!LO:LB:g=original
=88	=88	=88
8F\	8f/	.
8ryy	8r	ff
4F 4C 4AA 4FF\	4ff 4cc 4a 4f\	.
=89	=89	=89
2r	2r	.
==	==	==
*-	*-	*-
!!!system-decoration: {(s1,s2)}
!!!RDF**kern: > = above
!!!RDF**kern: < = below
!!!EED: Antoni Szymański
!!!EST: 2020-12-08
!!!ENC: Marta Chmielewska
!!!END: 2020-06-17
